X:138
M:2/4
L:1/8
Q:1/4=140
K:A
E|A>BAc| ecec| B>cBd|f3 (f/g/a/)|A>BAc|ec (ef/g/)|afec|A3:|
|:c|B>ABe|cAAc|B>ABe|(c2A)c|B>ABe|c>^dea|gef>g|He2(e/d/c/B/)|

